src/assets/filled/Slider.svg

<svg width="24" height="24" viewBox="0 0 24 24"  xmlns="http://www.w3.org/2000/svg">
<path d="M18 16.0098C18.55 16.0098 19 16.4598 19 17.0098V17.9998C19 20.1998 17.5 21.9998 15 21.9998H9C6.5 21.9998 5 20.1998 5 17.9998V17.0098C5 16.4598 5.45 16.0098 6 16.0098H18Z" />
<path d="M19 6V13.5C19 14.05 18.55 14.5 18 14.5H6C5.45 14.5 5 14.05 5 13.5V6C5 3.8 6.5 2 9 2H15C17.5 2 19 3.8 19 6Z" />
<path d="M3 20.75C2.59 20.75 2.25 20.41 2.25 20V4C2.25 3.59 2.59 3.25 3 3.25C3.41 3.25 3.75 3.59 3.75 4V20C3.75 20.41 3.41 20.75 3 20.75Z" />
<path d="M21 20.75C20.59 20.75 20.25 20.41 20.25 20V4C20.25 3.59 20.59 3.25 21 3.25C21.41 3.25 21.75 3.59 21.75 4V20C21.75 20.41 21.41 20.75 21 20.75Z" />
</svg>

<?xml version="1.0" encoding="UTF-8"?>
<svg width="24" height="24" viewBox="0 0 24 24" xmlns="http://www.w3.org/2000/svg">
 <path d="m18 16.01c0.55 0 1 0.45 1 1v0.99c0 2.2-1.5 4-4 4h-6c-2.5 0-4-1.8-4-4v-0.99c0-0.55 0.45-1 1-1h12z"/>
 <path d="m19 6v7.5c0 0.55-0.45 1-1 1h-12c-0.55 0-1-0.45-1-1v-7.5c0-2.2 1.5-4 4-4h6c2.5 0 4 1.8 4 4z"/>
 <path d="m3 20.75c-0.41 0-0.75-0.34-0.75-0.75v-16c0-0.41 0.34-0.75 0.75-0.75s0.75 0.34 0.75 0.75v16c0 0.41-0.34 0.75-0.75 0.75z"/>
 <path d="m21 20.75c-0.41 0-0.75-0.34-0.75-0.75v-16c0-0.41 0.34-0.75 0.75-0.75s0.75 0.34 0.75 0.75v16c0 0.41-0.34 0.75-0.75 0.75z"/>
</svg>
